Dominus_Dark_Funeral/22/apps/doublecmd.svg

<svg xmlns="http://www.w3.org/2000/svg" width="24" height="24" viewBox="0 0 6.35 6.35"><path style="line-height:1.25;-inkscape-font-specification:sans-serif" d="M1.27 1.32a2.05 2.05 0 0 0-1.14.34v.51c.17-.15.34-.26.53-.34.18-.07.37-.1.58-.1.4 0 .72.12.94.37.21.24.32.6.32 1.08 0 .47-.1.83-.32 1.08-.22.24-.53.37-.94.37-.2 0-.4-.04-.58-.11a1.7 1.7 0 0 1-.53-.34v.5a1.96 1.96 0 0 0 1.14.35c.54 0 .96-.17 1.28-.5.3-.33.46-.78.46-1.35a1.9 1.9 0 0 0-.46-1.36c-.32-.33-.74-.5-1.28-.5zm3.81 0c-.54 0-.96.17-1.28.5a1.9 1.9 0 0 0-.46 1.36c0 .57.15 1.02.46 1.35.32.33.74.5 1.28.5a2.04 2.04 0 0 0 1.14-.35v-.5a1.7 1.7 0 0 1-.53.34c-.18.07-.37.1-.58.1-.4 0-.72-.12-.94-.36-.21-.25-.32-.61-.32-1.08 0-.48.1-.84.32-1.08.22-.25.53-.38.94-.38.2 0 .4.04.58.11.19.08.36.2.53.34v-.5a2.05 2.05 0 0 0-1.13-.34z" font-weight="400" font-size="4.04" font-family="sans-serif" letter-spacing="0" word-spacing="0" fill="#e6e6e6"/></svg>

<?xml version="1.0" encoding="UTF-8" standalone="no"?>
<svg
   xmlns:dc="http://purl.org/dc/elements/1.1/"
   xmlns:cc="http://creativecommons.org/ns#"
   xmlns:rdf="http://www.w3.org/1999/02/22-rdf-syntax-ns#"
   xmlns:svg="http://www.w3.org/2000/svg"
   xmlns="http://www.w3.org/2000/svg"
   xmlns:sodipodi="http://sodipodi.sourceforge.net/DTD/sodipodi-0.dtd"
   xmlns:inkscape="http://www.inkscape.org/namespaces/inkscape"
   width="24"
   height="24"
   viewBox="0 0 6.35 6.35"
   version="1.1"
   id="svg4"
   sodipodi:docname="doublecmd.svg"
   inkscape:version="0.92.4 (5da689c313, 2019-01-14)">
  <metadata
     id="metadata10">
    <rdf:RDF>
      <cc:Work
         rdf:about="">
        <dc:format>image/svg+xml</dc:format>
        <dc:type
           rdf:resource="http://purl.org/dc/dcmitype/StillImage" />
        <dc:title></dc:title>
      </cc:Work>
    </rdf:RDF>
  </metadata>
  <defs
     id="defs8" />
  <sodipodi:namedview
     pagecolor="#ffffff"
     bordercolor="#666666"
     borderopacity="1"
     objecttolerance="10"
     gridtolerance="10"
     guidetolerance="10"
     inkscape:pageopacity="0"
     inkscape:pageshadow="2"
     inkscape:window-width="1142"
     inkscape:window-height="480"
     id="namedview6"
     showgrid="false"
     inkscape:zoom="9.8333333"
     inkscape:cx="1.2711864"
     inkscape:cy="12"
     inkscape:window-x="0"
     inkscape:window-y="25"
     inkscape:window-maximized="0"
     inkscape:current-layer="svg4" />
  <path
     style="font-weight:400;font-size:4.03999996px;line-height:1.25;font-family:sans-serif;-inkscape-font-specification:sans-serif;letter-spacing:0;word-spacing:0;fill:#e6e6e6"
     d="M 1.27,1.32 A 2.05,2.05 0 0 0 0.13,1.66 V 2.17 C 0.3,2.02 0.47,1.91 0.66,1.83 0.84,1.76 1.03,1.73 1.24,1.73 1.64,1.73 1.96,1.85 2.18,2.1 2.39,2.34 2.5,2.7 2.5,3.18 2.5,3.65 2.4,4.01 2.18,4.26 1.96,4.5 1.65,4.63 1.24,4.63 1.04,4.63 0.84,4.59 0.66,4.52 A 1.7,1.7 0 0 1 0.13,4.18 v 0.5 A 1.96,1.96 0 0 0 1.27,5.03 C 1.81,5.03 2.23,4.86 2.55,4.53 2.85,4.2 3.01,3.75 3.01,3.18 A 1.9,1.9 0 0 0 2.55,1.82 C 2.23,1.49 1.81,1.32 1.27,1.32 Z m 3.81,0 C 4.54,1.32 4.12,1.49 3.8,1.82 A 1.9,1.9 0 0 0 3.34,3.18 c 0,0.57 0.15,1.02 0.46,1.35 0.32,0.33 0.74,0.5 1.28,0.5 A 2.04,2.04 0 0 0 6.22,4.68 V 4.18 A 1.7,1.7 0 0 1 5.69,4.52 C 5.51,4.59 5.32,4.62 5.11,4.62 4.71,4.62 4.39,4.5 4.17,4.26 3.96,4.01 3.85,3.65 3.85,3.18 3.85,2.7 3.95,2.34 4.17,2.1 4.39,1.85 4.7,1.72 5.11,1.72 c 0.2,0 0.4,0.04 0.58,0.11 0.19,0.08 0.36,0.2 0.53,0.34 V 1.67 A 2.05,2.05 0 0 0 5.09,1.33 Z"
     font-weight="400"
     font-size="4.04"
     letter-spacing="0"
     word-spacing="0"
     id="path2"
     inkscape:connector-curvature="0" />
</svg>
